X:4
T:Go In And Out The Windows
%%score 1 { 2 | 3 }
L:1/8
Q:1/4=100
M:4/4
I:linebreak $
K:F
V:1 treble nm="Violin"
V:2 treble stafflines=5 nm="Piano"
V:3 bass 
V:1
A2 |:"F" CF A>B"C" A G2 G |"C" CE G>A"F" G F2 A |$"F" CF A>B"C" A G2 G/G/ |"C" ccBG"F" F2 A2 |$ 
w: Go|in and out the win- dows, Go|in and out the win- dows, Go|in and out the win- dows, Till the|high- land gates are closed. Go|
w: Go|forth and meet your lov- er, Go|forth and meet your lov- er. Go|forth and meet your lov- er, Till the|high- land gates are closed. Kneel|
"F" CF A>B"C" A G2 G |"C" CE G>A"F" G F2 A |$"F" CF A>B"C" A G2 G/G/ |"C" ccBG"F" F2-"C" F z :| 
w: up and down the va- ley, Go|up and down the val- ley, Go|up and down the val- ley, Till the|high- land gaes are closed. _|
w: down and kiss your lov- er, Kneel|down and kiss your lov- er. Kneel|down and kiss your lov- er, Till the|high- land gates are closed. _|
V:2
A2 |: C F A3/2 B/ A G2 G | C E G3/2 A/ G F2 A |$ C F A3/2 B/ A G2 G/ G/ | c c B G F2- F z |$ 
C F A3/2 B/ A G2 G | C E G3/2 A/ G F2 A |$ C F A3/2 B/ A G2 G/ G/ | c c B G F2- F z :| 
V:3
z2 |: F, C A, C E, C B, C | C, B, E, B, F, C A, C |$ F, C A, C E, C B, C | 
C, B, E, B, F, C F, z |$ F, C A, C E, C B, C | C, B, E, B, F, C A, C |$ F, C A, C E, C B, C | 
C, B, E, B, F, C F, z :| 




